assets/img/home.svg

<svg viewBox="0 0 52.74 57" xmlns="http://www.w3.org/2000/svg"><path d="m17 70.09h17.2v-24.09h16.34v24.09h17.2v-36.53a4.17 4.17 0 0 0 -1.74-3.42l-20.82-14.32a4.15 4.15 0 0 0 -4.74 0l-21.67 15.18a4.16 4.16 0 0 0 -1.77 3.41z" fill="none" stroke="#9f9fa0" stroke-miterlimit="10" stroke-width="2" transform="translate(-16 -14.09)"/></svg>

<svg id="圖層_1" data-name="圖層 1" xmlns="http://www.w3.org/2000/svg" viewBox="0 0 52.74 57"><defs><style>.cls-1{fill:none;stroke:#9f9fa0;stroke-miterlimit:10;stroke-width:2px;}</style></defs><title>主頁</title><path class="cls-1" d="M17,70.09H34.2V46H50.54V70.09h17.2V33.56A4.17,4.17,0,0,0,66,30.14L45.18,15.82a4.15,4.15,0,0,0-4.74,0L18.77,31A4.16,4.16,0,0,0,17,34.41Z" transform="translate(-16 -14.09)"/></svg>
